src/img/categories/care.svg

<svg width="34" height="36" viewBox="0 0 34 36" fill="none" xmlns="http://www.w3.org/2000/svg">
<path fill-rule="evenodd" clip-rule="evenodd" d="M33.4096 14.1829C33.3854 13.8455 33.2159 13.5351 32.9451 13.3322L27.366 9.15325C27.3981 9.00211 27.4155 8.84562 27.4155 8.68503V2.25655C27.4155 1.01228 26.4031 0 25.1588 0H20.7708C19.5266 0 18.5143 1.01228 18.5143 2.25655V8.68503C18.5143 8.83354 18.5296 8.97841 18.5571 9.11901L12.8789 13.3287C12.6147 13.5247 12.4454 13.8228 12.4126 14.1501C12.3798 14.4774 12.4867 14.8032 12.7069 15.0477C17.5023 20.3701 18.4588 34.761 18.4679 34.9057C18.5066 35.5207 19.0166 35.9999 19.6329 35.9999H26.2483C26.8833 35.9999 27.4019 35.4922 27.4152 34.8573C27.416 34.821 27.5005 31.1798 28.2646 26.8887C29.2546 21.3285 30.9168 17.2489 33.0712 15.0911C33.3104 14.8517 33.4338 14.5203 33.4096 14.1829ZM20.8488 2.33448H25.0811V8.60719H20.8488V2.33448ZM27.6408 19.9586H17.9506C17.2339 17.9221 16.3444 16.0095 15.2427 14.4823L20.0184 10.9417H20.7708H25.1588H25.8596L30.5335 14.4425C29.3194 15.9806 28.3751 17.9074 27.6408 19.9586ZM10.5991 19.1754L10.5998 19.1653C10.6034 19.1167 10.607 19.0682 10.607 19.0188V10.3804C10.8937 8.35849 10.3574 6.2212 9.16506 4.7129C7.75885 2.9343 5.14072 1.7191 3.07228 1.88604C2.60233 1.92401 2.20141 2.241 2.056 2.68951C1.91312 3.1303 1.85072 3.57436 1.84991 4.01334C1.84473 4.0741 1.84055 4.13523 1.84055 4.19736V19.0189C1.84055 19.0666 1.84396 19.1136 1.84737 19.1604L1.84845 19.1754C0.784032 19.4703 0 20.447 0 21.604V23.4888C0 24.1159 0.230704 24.6896 0.611004 25.1312V33.4799C0.611004 34.8694 1.74155 36 3.13104 36H9.31611C10.7057 36 11.8361 34.8694 11.8361 33.4799V25.1313C12.2164 24.6897 12.4471 24.1159 12.4471 23.4888V21.604C12.4475 20.4469 11.6636 19.4702 10.5991 19.1754ZM2.33457 23.4887V21.6039C2.33457 21.5015 2.41804 21.4182 2.52049 21.4182H9.92747C10.0298 21.4182 10.1131 21.5015 10.1131 21.6039V23.4887C10.1131 23.5912 10.0298 23.6745 9.92747 23.6745H2.52049C2.41795 23.6745 2.33457 23.5912 2.33457 23.4887ZM4.17503 9.18693C5.18386 10.3179 6.64602 11.385 8.27267 11.6713V18.8302H4.17503V9.18693ZM9.50203 33.4798C9.50203 33.5821 9.41874 33.6654 9.31638 33.6654H3.13132C3.02895 33.6654 2.94566 33.5821 2.94566 33.4798V26.0089H9.50212V33.4798H9.50203ZM22.1705 4.59231C22.1705 4.18403 22.5015 3.85305 22.9098 3.85305C23.3181 3.85305 23.649 4.18403 23.649 4.59231V6.18608C23.649 6.59435 23.3181 6.92533 22.9098 6.92533C22.5015 6.92533 22.1705 6.59435 22.1705 6.18608V4.59231Z" fill="#232F3E"/>
</svg>

<svg width="34" height="36" fill="none" xmlns="http://www.w3.org/2000/svg"><path fill-rule="evenodd" clip-rule="evenodd" d="M33.41 14.183a1.167 1.167 0 00-.465-.85l-5.579-4.18a2.25 2.25 0 00.05-.468V2.257A2.26 2.26 0 0025.159 0H20.77a2.26 2.26 0 00-2.257 2.257v6.428c0 .149.016.293.043.434l-5.678 4.21a1.168 1.168 0 00-.172 1.719c4.795 5.322 5.752 19.713 5.76 19.858A1.167 1.167 0 0019.634 36h6.615c.635 0 1.154-.508 1.167-1.143.001-.036.085-3.677.85-7.968.99-5.56 2.652-9.64 4.806-11.798.24-.24.363-.57.339-.908zM20.849 2.334h4.232v6.273H20.85V2.334zM27.64 19.96h-9.69c-.717-2.037-1.607-3.95-2.708-5.477l4.775-3.54h5.841l4.674 3.5c-1.214 1.539-2.158 3.465-2.892 5.517zm-17.042-.784v-.01c.004-.048.008-.097.008-.146v-8.64c.287-2.022-.25-4.159-1.442-5.667C7.76 2.934 5.141 1.719 3.072 1.886c-.47.038-.87.355-1.016.804a4.29 4.29 0 00-.206 1.323 2.16 2.16 0 00-.01.184V19.02c0 .048.004.095.007.141l.001.015A2.524 2.524 0 000 21.604v1.885c0 .627.23 1.2.611 1.642v8.349c0 1.39 1.13 2.52 2.52 2.52h6.185c1.39 0 2.52-1.13 2.52-2.52v-8.35a2.51 2.51 0 00.611-1.642v-1.885a2.523 2.523 0 00-1.848-2.429zM2.335 23.49v-1.885c0-.102.083-.186.185-.186h7.407c.103 0 .186.084.186.186v1.885a.186.186 0 01-.186.185H2.52a.186.186 0 01-.185-.185zm1.84-14.302c1.009 1.13 2.471 2.198 4.098 2.484v7.16H4.175V9.186zM9.502 33.48a.186.186 0 01-.186.185H3.131a.186.186 0 01-.185-.185v-7.471h6.556v7.47zM22.17 4.592a.74.74 0 011.479 0v1.594a.74.74 0 11-1.479 0V4.592z" fill="#232F3E"/></svg>
